X: 16309
T: Grouse On The Hill, The
R: jig
M: 6/8
K: Eminor
|:GEF G2A|B2A Be^c|d2 A BAG|F3 DEF|
G2E FGA|Bee fed|B3 AFB|1 EFE E2 F:|2 EFE E2 f||
|:g2e fed|Be^c dBA|gfg afd|e/f/gf e2 f|
g2e fed|Be^c dBA|B3 AFB|EFE E3:|

